icons/webassembly.svg

<svg version="1.1" viewBox="0 0 300 300" xmlns="http://www.w3.org/2000/svg"><title>web-assembly-logo-black</title><g transform="translate(0,142.97)" data-name="Layer 2"><g id="Notch_-_Black" data-name="Notch - Black"><g id="icon" transform="matrix(2.2365 0 0 2.2365 -188.25 -113.32)" style="fill:#7c4dff"><polygon points="177.3 67.39 174.19 81.38 183.87 81.38 180.3 67.39" style="fill:#d3869b"/><path transform="translate(-.21)" d="m163.77 0a5.62 5.62 0 0 1 0 .58 12.34 12.34 0 0 1 -12.34 12.34 12.33 12.33 0 0 1 -12.32 -12.34 5.62 5.62 0 0 1 0 -.58h-41.47v107.62h107.62v-107.62zm-14.77 96.1-5.25-25.93h-.09l-5.66 25.93h-7.22l-8.18-38.1h7.13l4.88 25.94h.09l5.88-25.94h6.67l5.28 26.26h.1l5.56-26.26h7l-9.09 38.1zm39.26 0-2.43-8.48h-12.83l-1.87 8.48h-7.13l9.22-38.1h11.25l11.21 38.1z" style="fill:#d3869b"/></g></g></g></svg>

<svg viewBox="0 0 300 300" xmlns="http://www.w3.org/2000/svg"><g data-name="Layer 2"><g style="fill:#7c4dff" data-name="Notch - Black"><path style="fill:#7c4dff" d="m177.3 67.39-3.11 13.99h9.68l-3.57-13.99z" transform="translate(-188.25 29.65) scale(2.2365)"/><path transform="translate(-188.72 29.65) scale(2.2365)" d="M163.77 0a5.62 5.62 0 0 1 0 .58 12.34 12.34 0 0 1-12.34 12.34A12.33 12.33 0 0 1 139.11.58a5.62 5.62 0 0 1 0-.58H97.64v107.62h107.62V0zM149 96.1l-5.25-25.93h-.09L138 96.1h-7.22L122.6 58h7.13l4.88 25.94h.09L140.58 58h6.67l5.28 26.26h.1L158.19 58h7l-9.09 38.1zm39.26 0-2.43-8.48H173l-1.87 8.48H164l9.22-38.1h11.25l11.21 38.1z" style="fill:#7c4dff"/></g></g></svg>
